X:1
T:James Gibb editions
T:Madonna, io mi consumo - Festa
T:#
%%score [ 1 2 3 ]
L:1/8
Q:1/4=108
M:4/4
K:C
V:1 treble nm="Soprano" snm="S"
V:2 treble nm="Alto" snm="A"
V:3 treble-8 nm="Tenor" snm="T"
V:1
"^Madonna, io mi consumo""^Costanzo Festa\n(1490-1545)" A4 | A2 A2 A2 A2 | _B4 A4 | A4 G2 A2 | %4
w: Ma-|don- na,~~io mi con-|su- mo,|Et pel gra-|
 _B2 G2 A4 | A2 G2 G2 F2 | E4 D4 | z2 D2 F2 G2 |[M:4/4] A2 A2 G4 | F4 f4- | f4 e2 d2 | (d6 ^cB | %12
w: ve do- lo-|re Corr' al- la|mor- te,|Et a voi|non ne cal-|le, Ahi,|* du- ra|sor\- * *|
 ^c4) d4 | z2 d2 G2 A2 | _B2 c2 d4- | d2 d2 d2 c2 | _B4 A4 | z8 | z2 _B2 c2 A2 | _B2 B2 G2 G2 | %20
w: * te!|Veg- gion' am-|bo due las\-|* si~~al fin pe-|ri- re||Se vostr' al-|ta du- rez- za|
 z4 _B4- | B2 _B2 B4 | A2 _B2 c2 c2 | d4 d2 (c2- | c_B AG A4) | G4 z2 d2 | d2 d2 d2 d2 | %27
w: Non|* la rom-|pe pie- tà Del|mio lan- gui\-||re; Che|si so verch' in|
 d4 c2 _B2- | B2 A2 G4 | F4 A4 | A2 A2 A2 A2 | A4 A2 A2- | A2 G2 A4 | A2 A2 c3 _B | A2 G2 F4- | %35
w: voi sia la|* dol- cez-|za, De|mio tor- ment' in|me tal' è'!|* mar- ti-|re, Ch'io mor- rò|di do- lor,|
 F4 z2 D2 | (DEFG A_B c2- | c_BAG F2) G2- | G2 ^F2 G2 _B2 | c3 _B A2 G2 | F4 z2 D2 | (DEFG AGA_B | %42
w: * voi|d'al- * * * * * *|* * * * * le\-|* grez- za, Ch'io|mor- rò di do-|lor, voi|d'al\- * * * * * * *|
 c2) A2 (G2 c2 | _B2 AG[Q:1/4=106] A4) |[Q:1/4=101] G8- |[Q:1/4=94] G8 |[Q:1/4=92] G16 |] %47
w: * le- grez\- *||za.|||
V:2
 F4 | F2 F2 E2 F2 | G4 ^F4 | F4 D2 F2 | F2 E2 F4 | C2 F2 E2 D2- | D2 ^C2 D4 | F4 D2 E2 | %8
w: Ma-|don- na,~~io mi con-|su- mo,|Et pel gra-|ve do- lo-|re Corr' al- la|* mor- te,|Et a voi|
[M:4/4] F2 F2 _B4 | A4 A4- | A4 G2 F2 | (D4 E4- | E4) D4 | z2 D2 E2 F2 | G2 A2 _B4 | A2 _B2 B2 A2 | %16
w: non ne cal-|le, Ahi,|* du- ra|sor\- *|* te!|Veg- gion' am-|bo due las-|si al fin pe-|
 (G4- ^F3 G | AF _B4 A2- | A2 G2) A2 F2 | G2 F2 E2 E2 | (D G2 ^F) G2 G2- | G2 G2 G4 | %22
w: ri\- * *||* * re Se|vostr' al- ta du-|rez\- * * za Non|* la rom-|
 ^F2 F2 G2 A2 | _B4 B2 (A2- | AG G2- G2 ^F2) | G4 z2 _B2 | _B2 B2 B2 B2 | _B4 A2 G2- | G2 F2 _B4 | %29
w: pe pie- tà Del|mio lan- gui\-||re; Che|si so verch' in|voi sia la|* dol- cez-|
 A4 F4 | F2 F2 E2 F2 | E2 F2 F2 E2 | D4 E4 | z2 E2 A3 G | F2 E2 D4 | z2 D2 (DEFG | AGA_B c2) A2 | %37
w: za, De|mio tor- ment' in|me tal' è'! mar-|ti- re,|Ch'io mor- rò|di do- lor,|voi d'al\- * * *|* * * * * le-|
 (G2 c2- _B2 AG | A4) G2 G2 | A3 G F2 E2 | D8 | z2 D2 (DEFG | A_B c3 BAG) | F2 (G4 ^F2) | %44
w: grez\- * * * *|* za, Ch'io|mor- rò di do-|lor,|voi d'al\- * * *||le- grez\- *|
 G4 z2 D2 | _E2 D2 E4 | D16 |] %47
w: za, voi|d'al- le- grez-|za.|
V:3
 d4 | d2 d2 c2 d2 | G4 d4 | z2 d2 _B2 A2 | G2 G2 F4 | F2 F2 c2 d2 | A4 d4- | d4 z4 | %8
w: Ma-|don- na,~~io mi con-|su- mo,|Et pel gra-|ve do- lo-|re Corr' al- la|mor- te,||
[M:4/4][K:treble-8] z8 | z4 F4- | F4 c2 d2 | (_B4 A2 G2 | A4) d4- | d4 z4 | z8 | d4 G2 A2 | %16
w: |Ahi,|* du- ra|sor\- * *|* te!|||Veg- gion' am-|
 _B2 c2 d4- | d2 d2 d2 c2 | _B4 A4 | z2 _B2 c2 c2 | _B2 A2 G2 G2 | z2 G2 G2 G2 | d2 d2 c2 c2 | %23
w: bo due las\-|* si~~al fin pe-|ri- re|Se vostr' al-|ta du- rez- za|Non la rom-|pe pie- tà Del|
 _B4 (B2 F2- | F2 G2 d4) | (G4 _B4- | B8) | z8 | z4 z4 | d4 d4- | d2 d2 c2 d2 | A2 d2 d2 c2 | %32
w: mio lan- gui\-||re; *||||De mio|* tor- menit' in|me tal' è'! mar-|
 _B4 A4 | c4 F3 G | A2 A2 _B4- | B4 _B4 | z4 A4 | c4 (d2 _e2) | d4 G2 G2 | F3 G A2 A2 | _B8- | %41
w: ti- re,|Ch'io mor- rò|di do- lor,||voi|d'al- le\- *|grez- za, Ch'io|mor- rò di do-|lor,|
 B4 z4 | A4 c4 | (d2 _e2) d4 | G4 z2 G2 | c2 B2 c4 | G16 |] %47
w: |voi d'al-|le\- * grez-|za, voi|d'al- le- grez-|za.|

